icons/EmojiAngry.svg

<svg width="24" height="24" viewBox="0 0 24 24" fill="none" xmlns="http://www.w3.org/2000/svg">
<path fill-rule="evenodd" clip-rule="evenodd" d="M21.75,12c0,5.3848 -4.3652,9.75 -9.75,9.75c-5.38477,0 -9.75,-4.3652 -9.75,-9.75c0,-5.38478 4.36523,-9.75 9.75,-9.75c5.3848,0 9.75,4.36522 9.75,9.75zM12,20.25c4.5564,0 8.25,-3.6937 8.25,-8.25c0,-4.55635 -3.6936,-8.25 -8.25,-8.25c-4.55634,0 -8.25,3.69365 -8.25,8.25c0,4.5563 3.69366,8.25 8.25,8.25zM9.32597,10.8866c-0.21774,0.3672 -0.6181,0.6134 -1.07597,0.6134c-0.69035,0 -1.25,-0.5596 -1.25,-1.25c0,-0.45786 0.24617,-0.85823 0.61338,-1.07596l-0.97214,-0.97214c-0.29289,-0.29289 -0.29289,-0.76777 0,-1.06066c0.2929,-0.29289 0.76777,-0.29289 1.06066,0l2.8284,2.82843c0.2929,0.29293 0.2929,0.76773 0,1.06063c-0.2929,0.2929 -0.76774,0.2929 -1.06063,0zM17,10.25c0,0.6904 -0.5596,1.25 -1.25,1.25c-0.4579,0 -0.8582,-0.2462 -1.076,-0.6134l-0.1437,0.1437c-0.2929,0.2929 -0.7677,0.2929 -1.0606,0c-0.2929,-0.2929 -0.2929,-0.7677 0,-1.06063l2.8284,-2.82843c0.2929,-0.29289 0.7678,-0.29289 1.0607,0c0.2929,0.29289 0.2929,0.76777 0,1.06066l-0.9722,0.97213c0.3672,0.21774 0.6134,0.61811 0.6134,1.07597zM12,15.75c-1.3511,0 -2.64215,0.4528 -3.46967,1.2803c-0.29289,0.2929 -0.76777,0.2929 -1.06066,0c-0.29289,-0.2929 -0.29289,-0.7677 0,-1.0606c1.17248,-1.1725 2.88143,-1.7197 4.53033,-1.7197c1.6489,0 3.3579,0.5472 4.5303,1.7197c0.2929,0.2929 0.2929,0.7677 0,1.0606c-0.2929,0.2929 -0.7677,0.2929 -1.0606,0c-0.8276,-0.8275 -2.1186,-1.2803 -3.4697,-1.2803z" fill="#002B51"/>
</svg>

<svg width="24" height="24" viewBox="0 0 24 24" fill="none" xmlns="http://www.w3.org/2000/svg">
<path fill-rule="evenodd" clip-rule="evenodd" d="M12 2.25C6.61523 2.25 2.25 6.61522 2.25 12C2.25 17.3848 6.61523 21.75 12 21.75C17.3848 21.75 21.75 17.3848 21.75 12C21.75 6.61522 17.3848 2.25 12 2.25ZM3.75 12C3.75 7.44365 7.44366 3.75 12 3.75C16.5564 3.75 20.25 7.44365 20.25 12C20.25 16.5563 16.5564 20.25 12 20.25C7.44366 20.25 3.75 16.5563 3.75 12ZM9.32597 10.8866C9.10823 11.2538 8.70787 11.5 8.25 11.5C7.55965 11.5 7 10.9404 7 10.25C7 9.79214 7.24617 9.39177 7.61338 9.17404L6.64124 8.2019C6.34835 7.90901 6.34835 7.43413 6.64124 7.14124C6.93414 6.84835 7.40901 6.84835 7.7019 7.14124L10.5303 9.96967C10.8232 10.2626 10.8232 10.7374 10.5303 11.0303C10.2374 11.3232 9.76256 11.3232 9.46967 11.0303L9.32597 10.8866ZM17 10.25C17 10.9404 16.4404 11.5 15.75 11.5C15.2921 11.5 14.8918 11.2538 14.674 10.8866L14.5303 11.0303C14.2374 11.3232 13.7626 11.3232 13.4697 11.0303C13.1768 10.7374 13.1768 10.2626 13.4697 9.96967L16.2981 7.14124C16.591 6.84835 17.0659 6.84835 17.3588 7.14124C17.6517 7.43413 17.6517 7.90901 17.3588 8.2019L16.3866 9.17403C16.7538 9.39177 17 9.79214 17 10.25ZM15.4697 17.0303C15.7626 17.3232 16.2374 17.3232 16.5303 17.0303C16.8232 16.7374 16.8232 16.2626 16.5303 15.9697C15.3579 14.7972 13.6489 14.25 12 14.25C10.3511 14.25 8.64215 14.7972 7.46967 15.9697C7.17678 16.2626 7.17678 16.7374 7.46967 17.0303C7.76256 17.3232 8.23744 17.3232 8.53033 17.0303C9.35785 16.2028 10.6489 15.75 12 15.75C13.3511 15.75 14.6421 16.2028 15.4697 17.0303Z" fill="#002B51"/>
</svg>
